X:1
T:Title
%%score { ( 1 3 ) | ( 2 4 ) }
L:1/8
M:4/4
K:Bb
V:1 treble nm="Grand Piano"
V:3 treble 
V:2 bass 
V:4 bass 
V:1
 z4 z2[Q:1/4=100] [DF]2 | [DF]2 [_D=E][DG] [=DF]2 [FA][FB] | c2 Bc d3 [FB] | %3
 [GB]2 [FA][EG] [DF]2 [FB]c | d2 cB c3 F | [DF]2 [_D=E][DG] [=DF]2 [FA][FB] | %6
 [Fc]2 [FB][Fc] [Fd]3 [B,_AB] | [EGB]2 [B,FA][B,EG] [B,DF]2 [B,FB][EFc] | %8
[M:7/8] [Fd]2 [Ec]>[DB] [DB]3 |[M:1/4] [DF]2 |[M:4/4] d2- [Fd-]2 [Fd]2 B>G | F6 z2 | c2 cc B2 cc | %13
 d6 z2 | d6 z2 | F6 z2 | [Gc]2 [Fd][Ge] [Fd]2 [Ec]>[DB] |[M:3/4] [DB]6 |] %18
V:2
 z4 z2 [B,,B,]2 | [B,,B,]2 [B,,G,][B,,=E,] [B,,F,]2 [C,F,][D,B,] | %2
 [F,A,F]2 [F,G,F][F,A,F] [B,F]3[K:bass] [D,B,] | %3
 [E,E]2 [E,B,][E,B,] [B,,B,]2 [D,B,][K:treble][F,A,F] | %4
 [B,F]2 [A,CF][G,C=E] [F,A,F]3[K:bass] [F,A,_E] | [B,,B,]2 [B,,G,][B,,=E,] [B,,F,]2 [C,F,][D,B,] | %6
 [F,A,]2 [D,B,][F,A,] B,3 D, | E,2 E,E, B,,2 D,E, |[M:7/8] z B,[F,A,]>[B,,B,] [B,,B,]3 | %9
[M:1/4] [B,,B,]2 |[M:4/4] [B,,B,]2 [B,,B,]2 [B,,B,]2 [E,G,E]>[E,B,E] | %11
 [B,,B,]2 [B,,B,]>[B,,B,] [B,,B,]2 [D,B,]2 | [F,A,F]2 [F,A,F][F,EF] [F,DF]2 [F,A,F][F,A,F] | %13
 B,2 z2 z4[K:bass] | [B,,B,]2 [B,,B,]2 [B,,B,]2 [E,G,E]>[E,B,E] | %15
 [B,,B,]2 [B,,B,]>[B,,B,] [B,,B,]2 [D,B,]2 | [E,B,]2 [D,B,][C,B,] [F,B,]2 [F,A,]>[B,,B,] | %17
[M:3/4] [B,,F,B,]6 |] %18
V:3
 x8 | x8 | x8 | x8 | x8 | x8 | x8 | x8 |[M:7/8] D z z z z z2 |[M:1/4] x2 |[M:4/4] F2 z2 z4 | %11
 D2 D>D D2 [FB]2 | x8 | z2 B,2 z2 [DF]2 | F2 F2 F2 B>G | D2 D>D D2 [FB]2 | x8 |[M:3/4] x6 |] %18
V:4
 x8 | x8 | x7[K:bass] x | x7[K:treble] x | x7[K:bass] x | x8 | x8 | x8 |[M:7/8] F,2 z z z z2 | %9
[M:1/4] x2 |[M:4/4] x8 | x8 | x8 | F2- [D,F-][F,F-] [B,F]2[K:bass] [B,,B,]2 | x8 | x8 | x8 | %17
[M:3/4] x6 |] %18

